X:750
T:Arkle Mountain
R:reel
S:
H:
N:
D:Milltown 1999 
Z:Adrian Scahill
M:4/4
L:1/8
K:G
Addc AGFG|Addf gcc2|Add2 ef (3gfe|a3f gffe|\
Addc AGFG|Adfd gcc2|dBcA (3BcB AF|GFEG FDD2:||\
a3f gffe|dfed ^cdBd|A2af gffe|dfef defg|\
a3f gffe|dfed ^cdBd|Add2 AGFA|GFEG FDD2:||


